public/images/icons/email-verify.svg

<svg xmlns="http://www.w3.org/2000/svg" fill="currentColor" viewBox="0 0 24 24"><path d="M13 19c0-.34.04-.67.09-1H4V8l8 5 8-5v5.09c.72.12 1.39.37 2 .72V6c0-1.1-.9-2-2-2H4c-1.1 0-2 .9-2 2v12c0 1.1.9 2 2 2h9.09c-.05-.33-.09-.66-.09-1m7-13-8 5-8-5h16m-2.25 16.16-2.75-3L16.16 18l1.59 1.59L21.34 16l1.16 1.41-4.75 4.75"/></svg>

<svg xmlns="http://www.w3.org/2000/svg" viewBox="0 0 24 24" fill="currentColor"><path d="M13 19C13 18.66 13.04 18.33 13.09 18H4V8L12 13L20 8V13.09C20.72 13.21 21.39 13.46 22 13.81V6C22 4.9 21.1 4 20 4H4C2.9 4 2 4.9 2 6V18C2 19.1 2.9 20 4 20H13.09C13.04 19.67 13 19.34 13 19M20 6L12 11L4 6H20M17.75 22.16L15 19.16L16.16 18L17.75 19.59L21.34 16L22.5 17.41L17.75 22.16" /></svg>
